; route.gcode generated by disk_planner_xy.py
G21 ; mm
G90 ; absolute
G28 X Z ; home only X and Z for safety (manual Y)
G0 Z40.00 F1200
; ---- Column 0 (target X≈269.00 mm) ----
M300 S880 P150 ; beep
M0 Move X to 269.00 mm, then press to continue
; tile row0_0
G0 X269.00 F9000
G4 P250 ; settle
; trigger shutter here if needed
G4 P200 ; dwell
; ---- Column 1 (target X≈277.00 mm) ----
M300 S880 P150 ; beep
M0 Move X to 277.00 mm, then press to continue
; tile row1_0
G0 X277.00 F9000
G4 P250 ; settle
; trigger shutter here if needed
G4 P200 ; dwell
; tile row1_1
G0 X277.00 F9000
G4 P250 ; settle
; trigger shutter here if needed
G4 P200 ; dwell
; tile row1_2
G0 X277.00 F9000
G4 P250 ; settle
; trigger shutter here if needed
G4 P200 ; dwell
; tile row1_3
G0 X277.00 F9000
G4 P250 ; settle
; trigger shutter here if needed
G4 P200 ; dwell
; tile row1_4
G0 X277.00 F9000
G4 P250 ; settle
; trigger shutter here if needed
G4 P200 ; dwell
; tile row1_5
G0 X277.00 F9000
G4 P250 ; settle
; trigger shutter here if needed
G4 P200 ; dwell
; tile row1_6
G0 X277.00 F9000
G4 P250 ; settle
; trigger shutter here if needed
G4 P200 ; dwell
; tile row1_7
G0 X277.00 F9000
G4 P250 ; settle
; trigger shutter here if needed
G4 P200 ; dwell
; tile row1_8
G0 X277.00 F9000
G4 P250 ; settle
; trigger shutter here if needed
G4 P200 ; dwell
; tile row1_9
G0 X277.00 F9000
G4 P250 ; settle
; trigger shutter here if needed
G4 P200 ; dwell
; tile row1_10
G0 X277.00 F9000
G4 P250 ; settle
; trigger shutter here if needed
G4 P200 ; dwell
; tile row1_11
G0 X277.00 F9000
G4 P250 ; settle
; trigger shutter here if needed
G4 P200 ; dwell
; tile row1_12
G0 X277.00 F9000
G4 P250 ; settle
; trigger shutter here if needed
G4 P200 ; dwell
; tile row1_13
G0 X277.00 F9000
G4 P250 ; settle
; trigger shutter here if needed
G4 P200 ; dwell
; tile row1_14
G0 X277.00 F9000
G4 P250 ; settle
; trigger shutter here if needed
G4 P200 ; dwell
; tile row1_15
G0 X277.00 F9000
G4 P250 ; settle
; trigger shutter here if needed
G4 P200 ; dwell
; tile row1_16
G0 X277.00 F9000
G4 P250 ; settle
; trigger shutter here if needed
G4 P200 ; dwell
; tile row1_17
G0 X277.00 F9000
G4 P250 ; settle
; trigger shutter here if needed
G4 P200 ; dwell
; ---- Column 2 (target X≈285.00 mm) ----
M300 S880 P150 ; beep
M0 Move X to 285.00 mm, then press to continue
; tile row2_0
G0 X285.00 F9000
G4 P250 ; settle
; trigger shutter here if needed
G4 P200 ; dwell
; tile row2_1
G0 X285.00 F9000
G4 P250 ; settle
; trigger shutter here if needed
G4 P200 ; dwell
; tile row2_2
G0 X285.00 F9000
G4 P250 ; settle
; trigger shutter here if needed
G4 P200 ; dwell
; tile row2_3
G0 X285.00 F9000
G4 P250 ; settle
; trigger shutter here if needed
G4 P200 ; dwell
; tile row2_4
G0 X285.00 F9000
G4 P250 ; settle
; trigger shutter here if needed
G4 P200 ; dwell
; tile row2_5
G0 X285.00 F9000
G4 P250 ; settle
; trigger shutter here if needed
G4 P200 ; dwell
; tile row2_6
G0 X285.00 F9000
G4 P250 ; settle
; trigger shutter here if needed
G4 P200 ; dwell
; tile row2_7
G0 X285.00 F9000
G4 P250 ; settle
; trigger shutter here if needed
G4 P200 ; dwell
; tile row2_8
G0 X285.00 F9000
G4 P250 ; settle
; trigger shutter here if needed
G4 P200 ; dwell
; tile row2_9
G0 X285.00 F9000
G4 P250 ; settle
; trigger shutter here if needed
G4 P200 ; dwell
; tile row2_10
G0 X285.00 F9000
G4 P250 ; settle
; trigger shutter here if needed
G4 P200 ; dwell
; tile row2_11
G0 X285.00 F9000
G4 P250 ; settle
; trigger shutter here if needed
G4 P200 ; dwell
; tile row2_12
G0 X285.00 F9000
G4 P250 ; settle
; trigger shutter here if needed
G4 P200 ; dwell
; tile row2_13
G0 X285.00 F9000
G4 P250 ; settle
; trigger shutter here if needed
G4 P200 ; dwell
; tile row2_14
G0 X285.00 F9000
G4 P250 ; settle
; trigger shutter here if needed
G4 P200 ; dwell
; ---- Column 3 (target X≈293.00 mm) ----
M300 S880 P150 ; beep
M0 Move X to 293.00 mm, then press to continue
; tile row3_0
G0 X293.00 F9000
G4 P250 ; settle
; trigger shutter here if needed
G4 P200 ; dwell
; tile row3_1
G0 X293.00 F9000
G4 P250 ; settle
; trigger shutter here if needed
G4 P200 ; dwell
; tile row3_2
G0 X293.00 F9000
G4 P250 ; settle
; trigger shutter here if needed
G4 P200 ; dwell
; tile row3_3
G0 X293.00 F9000
G4 P250 ; settle
; trigger shutter here if needed
G4 P200 ; dwell
; tile row3_4
G0 X293.00 F9000
G4 P250 ; settle
; trigger shutter here if needed
G4 P200 ; dwell
; tile row3_5
G0 X293.00 F9000
G4 P250 ; settle
; trigger shutter here if needed
G4 P200 ; dwell
; tile row3_6
G0 X293.00 F9000
G4 P250 ; settle
; trigger shutter here if needed
G4 P200 ; dwell
; tile row3_7
G0 X293.00 F9000
G4 P250 ; settle
; trigger shutter here if needed
G4 P200 ; dwell
; ---- Column 4 (target X≈29.00 mm) ----
M300 S880 P150 ; beep
M0 Move X to 29.00 mm, then press to continue
; tile row4_0
G0 X29.00 F9000
G4 P250 ; settle
; trigger shutter here if needed
G4 P200 ; dwell
; tile row4_1
G0 X29.00 F9000
G4 P250 ; settle
; trigger shutter here if needed
G4 P200 ; dwell
; tile row4_2
G0 X29.00 F9000
G4 P250 ; settle
; trigger shutter here if needed
G4 P200 ; dwell
; ---- Column 5 (target X≈37.00 mm) ----
M300 S880 P150 ; beep
M0 Move X to 37.00 mm, then press to continue
; tile row5_0
G0 X37.00 F9000
G4 P250 ; settle
; trigger shutter here if needed
G4 P200 ; dwell
; tile row5_1
G0 X37.00 F9000
G4 P250 ; settle
; trigger shutter here if needed
G4 P200 ; dwell
; tile row5_2
G0 X37.00 F9000
G4 P250 ; settle
; trigger shutter here if needed
G4 P200 ; dwell
; tile row5_3
G0 X37.00 F9000
G4 P250 ; settle
; trigger shutter here if needed
G4 P200 ; dwell
; tile row5_4
G0 X37.00 F9000
G4 P250 ; settle
; trigger shutter here if needed
G4 P200 ; dwell
; tile row5_5
G0 X37.00 F9000
G4 P250 ; settle
; trigger shutter here if needed
G4 P200 ; dwell
; ---- Column 6 (target X≈45.00 mm) ----
M300 S880 P150 ; beep
M0 Move X to 45.00 mm, then press to continue
; tile row6_0
G0 X45.00 F9000
G4 P250 ; settle
; trigger shutter here if needed
G4 P200 ; dwell
; tile row6_1
G0 X45.00 F9000
G4 P250 ; settle
; trigger shutter here if needed
G4 P200 ; dwell
; tile row6_2
G0 X45.00 F9000
G4 P250 ; settle
; trigger shutter here if needed
G4 P200 ; dwell
; tile row6_3
G0 X45.00 F9000
G4 P250 ; settle
; trigger shutter here if needed
G4 P200 ; dwell
; tile row6_4
G0 X45.00 F9000
G4 P250 ; settle
; trigger shutter here if needed
G4 P200 ; dwell
; tile row6_5
G0 X45.00 F9000
G4 P250 ; settle
; trigger shutter here if needed
G4 P200 ; dwell
; tile row6_6
G0 X45.00 F9000
G4 P250 ; settle
; trigger shutter here if needed
G4 P200 ; dwell
; tile row6_7
G0 X45.00 F9000
G4 P250 ; settle
; trigger shutter here if needed
G4 P200 ; dwell
; tile row6_8
G0 X45.00 F9000
G4 P250 ; settle
; trigger shutter here if needed
G4 P200 ; dwell
; tile row6_9
G0 X45.00 F9000
G4 P250 ; settle
; trigger shutter here if needed
G4 P200 ; dwell
; ---- Column 7 (target X≈53.00 mm) ----
M300 S880 P150 ; beep
M0 Move X to 53.00 mm, then press to continue
; tile row7_0
G0 X53.00 F9000
G4 P250 ; settle
; trigger shutter here if needed
G4 P200 ; dwell
; tile row7_1
G0 X53.00 F9000
G4 P250 ; settle
; trigger shutter here if needed
G4 P200 ; dwell
; tile row7_2
G0 X53.00 F9000
G4 P250 ; settle
; trigger shutter here if needed
G4 P200 ; dwell
; tile row7_3
G0 X53.00 F9000
G4 P250 ; settle
; trigger shutter here if needed
G4 P200 ; dwell
; tile row7_4
G0 X53.00 F9000
G4 P250 ; settle
; trigger shutter here if needed
G4 P200 ; dwell
; tile row7_5
G0 X53.00 F9000
G4 P250 ; settle
; trigger shutter here if needed
G4 P200 ; dwell
; tile row7_6
G0 X53.00 F9000
G4 P250 ; settle
; trigger shutter here if needed
G4 P200 ; dwell
; tile row7_7
G0 X53.00 F9000
G4 P250 ; settle
; trigger shutter here if needed
G4 P200 ; dwell
; tile row7_8
G0 X53.00 F9000
G4 P250 ; settle
; trigger shutter here if needed
G4 P200 ; dwell
; tile row7_9
G0 X53.00 F9000
G4 P250 ; settle
; trigger shutter here if needed
G4 P200 ; dwell
; tile row7_10
G0 X53.00 F9000
G4 P250 ; settle
; trigger shutter here if needed
G4 P200 ; dwell
; tile row7_11
G0 X53.00 F9000
G4 P250 ; settle
; trigger shutter here if needed
G4 P200 ; dwell
; tile row7_12
G0 X53.00 F9000
G4 P250 ; settle
; trigger shutter here if needed
G4 P200 ; dwell
; ---- Column 8 (target X≈61.00 mm) ----
M300 S880 P150 ; beep
M0 Move X to 61.00 mm, then press to continue
; tile row8_0
G0 X61.00 F9000
G4 P250 ; settle
; trigger shutter here if needed
G4 P200 ; dwell
; tile row8_1
G0 X61.00 F9000
G4 P250 ; settle
; trigger shutter here if needed
G4 P200 ; dwell
; tile row8_2
G0 X61.00 F9000
G4 P250 ; settle
; trigger shutter here if needed
G4 P200 ; dwell
; tile row8_3
G0 X61.00 F9000
G4 P250 ; settle
; trigger shutter here if needed
G4 P200 ; dwell
; tile row8_4
G0 X61.00 F9000
G4 P250 ; settle
; trigger shutter here if needed
G4 P200 ; dwell
; tile row8_5
G0 X61.00 F9000
G4 P250 ; settle
; trigger shutter here if needed
G4 P200 ; dwell
; tile row8_6
G0 X61.00 F9000
G4 P250 ; settle
; trigger shutter here if needed
G4 P200 ; dwell
; tile row8_7
G0 X61.00 F9000
G4 P250 ; settle
; trigger shutter here if needed
G4 P200 ; dwell
; tile row8_8
G0 X61.00 F9000
G4 P250 ; settle
; trigger shutter here if needed
G4 P200 ; dwell
; tile row8_9
G0 X61.00 F9000
G4 P250 ; settle
; trigger shutter here if needed
G4 P200 ; dwell
; tile row8_10
G0 X61.00 F9000
G4 P250 ; settle
; trigger shutter here if needed
G4 P200 ; dwell
; tile row8_11
G0 X61.00 F9000
G4 P250 ; settle
; trigger shutter here if needed
G4 P200 ; dwell
; tile row8_12
G0 X61.00 F9000
G4 P250 ; settle
; trigger shutter here if needed
G4 P200 ; dwell
; tile row8_13
G0 X61.00 F9000
G4 P250 ; settle
; trigger shutter here if needed
G4 P200 ; dwell
; ---- Column 9 (target X≈69.00 mm) ----
M300 S880 P150 ; beep
M0 Move X to 69.00 mm, then press to continue
; tile row9_0
G0 X69.00 F9000
G4 P250 ; settle
; trigger shutter here if needed
G4 P200 ; dwell
; tile row9_1
G0 X69.00 F9000
G4 P250 ; settle
; trigger shutter here if needed
G4 P200 ; dwell
; tile row9_2
G0 X69.00 F9000
G4 P250 ; settle
; trigger shutter here if needed
G4 P200 ; dwell
; tile row9_3
G0 X69.00 F9000
G4 P250 ; settle
; trigger shutter here if needed
G4 P200 ; dwell
; tile row9_4
G0 X69.00 F9000
G4 P250 ; settle
; trigger shutter here if needed
G4 P200 ; dwell
; tile row9_5
G0 X69.00 F9000
G4 P250 ; settle
; trigger shutter here if needed
G4 P200 ; dwell
; tile row9_6
G0 X69.00 F9000
G4 P250 ; settle
; trigger shutter here if needed
G4 P200 ; dwell
; tile row9_7
G0 X69.00 F9000
G4 P250 ; settle
; trigger shutter here if needed
G4 P200 ; dwell
; tile row9_8
G0 X69.00 F9000
G4 P250 ; settle
; trigger shutter here if needed
G4 P200 ; dwell
; tile row9_9
G0 X69.00 F9000
G4 P250 ; settle
; trigger shutter here if needed
G4 P200 ; dwell
; tile row9_10
G0 X69.00 F9000
G4 P250 ; settle
; trigger shutter here if needed
G4 P200 ; dwell
; tile row9_11
G0 X69.00 F9000
G4 P250 ; settle
; trigger shutter here if needed
G4 P200 ; dwell
; tile row9_12
G0 X69.00 F9000
G4 P250 ; settle
; trigger shutter here if needed
G4 P200 ; dwell
; tile row9_13
G0 X69.00 F9000
G4 P250 ; settle
; trigger shutter here if needed
G4 P200 ; dwell
; tile row9_14
G0 X69.00 F9000
G4 P250 ; settle
; trigger shutter here if needed
G4 P200 ; dwell
; tile row9_15
G0 X69.00 F9000
G4 P250 ; settle
; trigger shutter here if needed
G4 P200 ; dwell
; ---- Column 10 (target X≈77.00 mm) ----
M300 S880 P150 ; beep
M0 Move X to 77.00 mm, then press to continue
; tile row10_0
G0 X77.00 F9000
G4 P250 ; settle
; trigger shutter here if needed
G4 P200 ; dwell
; tile row10_1
G0 X77.00 F9000
G4 P250 ; settle
; trigger shutter here if needed
G4 P200 ; dwell
; tile row10_2
G0 X77.00 F9000
G4 P250 ; settle
; trigger shutter here if needed
G4 P200 ; dwell
; tile row10_3
G0 X77.00 F9000
G4 P250 ; settle
; trigger shutter here if needed
G4 P200 ; dwell
; tile row10_4
G0 X77.00 F9000
G4 P250 ; settle
; trigger shutter here if needed
G4 P200 ; dwell
; tile row10_5
G0 X77.00 F9000
G4 P250 ; settle
; trigger shutter here if needed
G4 P200 ; dwell
; tile row10_6
G0 X77.00 F9000
G4 P250 ; settle
; trigger shutter here if needed
G4 P200 ; dwell
; tile row10_7
G0 X77.00 F9000
G4 P250 ; settle
; trigger shutter here if needed
G4 P200 ; dwell
; tile row10_8
G0 X77.00 F9000
G4 P250 ; settle
; trigger shutter here if needed
G4 P200 ; dwell
; tile row10_9
G0 X77.00 F9000
G4 P250 ; settle
; trigger shutter here if needed
G4 P200 ; dwell
; tile row10_10
G0 X77.00 F9000
G4 P250 ; settle
; trigger shutter here if needed
G4 P200 ; dwell
; tile row10_11
G0 X77.00 F9000
G4 P250 ; settle
; trigger shutter here if needed
G4 P200 ; dwell
; tile row10_12
G0 X77.00 F9000
G4 P250 ; settle
; trigger shutter here if needed
G4 P200 ; dwell
; tile row10_13
G0 X77.00 F9000
G4 P250 ; settle
; trigger shutter here if needed
G4 P200 ; dwell
; tile row10_14
G0 X77.00 F9000
G4 P250 ; settle
; trigger shutter here if needed
G4 P200 ; dwell
; tile row10_15
G0 X77.00 F9000
G4 P250 ; settle
; trigger shutter here if needed
G4 P200 ; dwell
; tile row10_16
G0 X77.00 F9000
G4 P250 ; settle
; trigger shutter here if needed
G4 P200 ; dwell
; tile row10_17
G0 X77.00 F9000
G4 P250 ; settle
; trigger shutter here if needed
G4 P200 ; dwell
; ---- Column 11 (target X≈85.00 mm) ----
M300 S880 P150 ; beep
M0 Move X to 85.00 mm, then press to continue
; tile row11_0
G0 X85.00 F9000
G4 P250 ; settle
; trigger shutter here if needed
G4 P200 ; dwell
; tile row11_1
G0 X85.00 F9000
G4 P250 ; settle
; trigger shutter here if needed
G4 P200 ; dwell
; tile row11_2
G0 X85.00 F9000
G4 P250 ; settle
; trigger shutter here if needed
G4 P200 ; dwell
; tile row11_3
G0 X85.00 F9000
G4 P250 ; settle
; trigger shutter here if needed
G4 P200 ; dwell
; tile row11_4
G0 X85.00 F9000
G4 P250 ; settle
; trigger shutter here if needed
G4 P200 ; dwell
; tile row11_5
G0 X85.00 F9000
G4 P250 ; settle
; trigger shutter here if needed
G4 P200 ; dwell
; tile row11_6
G0 X85.00 F9000
G4 P250 ; settle
; trigger shutter here if needed
G4 P200 ; dwell
; tile row11_7
G0 X85.00 F9000
G4 P250 ; settle
; trigger shutter here if needed
G4 P200 ; dwell
; tile row11_8
G0 X85.00 F9000
G4 P250 ; settle
; trigger shutter here if needed
G4 P200 ; dwell
; tile row11_9
G0 X85.00 F9000
G4 P250 ; settle
; trigger shutter here if needed
G4 P200 ; dwell
; tile row11_10
G0 X85.00 F9000
G4 P250 ; settle
; trigger shutter here if needed
G4 P200 ; dwell
; tile row11_11
G0 X85.00 F9000
G4 P250 ; settle
; trigger shutter here if needed
G4 P200 ; dwell
; tile row11_12
G0 X85.00 F9000
G4 P250 ; settle
; trigger shutter here if needed
G4 P200 ; dwell
; tile row11_13
G0 X85.00 F9000
G4 P250 ; settle
; trigger shutter here if needed
G4 P200 ; dwell
; tile row11_14
G0 X85.00 F9000
G4 P250 ; settle
; trigger shutter here if needed
G4 P200 ; dwell
; tile row11_15
G0 X85.00 F9000
G4 P250 ; settle
; trigger shutter here if needed
G4 P200 ; dwell
; tile row11_16
G0 X85.00 F9000
G4 P250 ; settle
; trigger shutter here if needed
G4 P200 ; dwell
; tile row11_17
G0 X85.00 F9000
G4 P250 ; settle
; trigger shutter here if needed
G4 P200 ; dwell
; ---- Column 12 (target X≈93.00 mm) ----
M300 S880 P150 ; beep
M0 Move X to 93.00 mm, then press to continue
; tile row12_0
G0 X93.00 F9000
G4 P250 ; settle
; trigger shutter here if needed
G4 P200 ; dwell
; tile row12_1
G0 X93.00 F9000
G4 P250 ; settle
; trigger shutter here if needed
G4 P200 ; dwell
; tile row12_2
G0 X93.00 F9000
G4 P250 ; settle
; trigger shutter here if needed
G4 P200 ; dwell
; tile row12_3
G0 X93.00 F9000
G4 P250 ; settle
; trigger shutter here if needed
G4 P200 ; dwell
; tile row12_4
G0 X93.00 F9000
G4 P250 ; settle
; trigger shutter here if needed
G4 P200 ; dwell
; tile row12_5
G0 X93.00 F9000
G4 P250 ; settle
; trigger shutter here if needed
G4 P200 ; dwell
; tile row12_6
G0 X93.00 F9000
G4 P250 ; settle
; trigger shutter here if needed
G4 P200 ; dwell
; tile row12_7
G0 X93.00 F9000
G4 P250 ; settle
; trigger shutter here if needed
G4 P200 ; dwell
; tile row12_8
G0 X93.00 F9000
G4 P250 ; settle
; trigger shutter here if needed
G4 P200 ; dwell
; tile row12_9
G0 X93.00 F9000
G4 P250 ; settle
; trigger shutter here if needed
G4 P200 ; dwell
; tile row12_10
G0 X93.00 F9000
G4 P250 ; settle
; trigger shutter here if needed
G4 P200 ; dwell
; tile row12_11
G0 X93.00 F9000
G4 P250 ; settle
; trigger shutter here if needed
G4 P200 ; dwell
; tile row12_12
G0 X93.00 F9000
G4 P250 ; settle
; trigger shutter here if needed
G4 P200 ; dwell
; tile row12_13
G0 X93.00 F9000
G4 P250 ; settle
; trigger shutter here if needed
G4 P200 ; dwell
; tile row12_14
G0 X93.00 F9000
G4 P250 ; settle
; trigger shutter here if needed
G4 P200 ; dwell
; tile row12_15
G0 X93.00 F9000
G4 P250 ; settle
; trigger shutter here if needed
G4 P200 ; dwell
; tile row12_16
G0 X93.00 F9000
G4 P250 ; settle
; trigger shutter here if needed
G4 P200 ; dwell
; tile row12_17
G0 X93.00 F9000
G4 P250 ; settle
; trigger shutter here if needed
G4 P200 ; dwell
; tile row12_18
G0 X93.00 F9000
G4 P250 ; settle
; trigger shutter here if needed
G4 P200 ; dwell
; ---- Column 13 (target X≈101.00 mm) ----
M300 S880 P150 ; beep
M0 Move X to 101.00 mm, then press to continue
; tile row13_0
G0 X101.00 F9000
G4 P250 ; settle
; trigger shutter here if needed
G4 P200 ; dwell
; tile row13_1
G0 X101.00 F9000
G4 P250 ; settle
; trigger shutter here if needed
G4 P200 ; dwell
; tile row13_2
G0 X101.00 F9000
G4 P250 ; settle
; trigger shutter here if needed
G4 P200 ; dwell
; tile row13_3
G0 X101.00 F9000
G4 P250 ; settle
; trigger shutter here if needed
G4 P200 ; dwell
; tile row13_4
G0 X101.00 F9000
G4 P250 ; settle
; trigger shutter here if needed
G4 P200 ; dwell
; tile row13_5
G0 X101.00 F9000
G4 P250 ; settle
; trigger shutter here if needed
G4 P200 ; dwell
; tile row13_6
G0 X101.00 F9000
G4 P250 ; settle
; trigger shutter here if needed
G4 P200 ; dwell
; tile row13_7
G0 X101.00 F9000
G4 P250 ; settle
; trigger shutter here if needed
G4 P200 ; dwell
; tile row13_8
G0 X101.00 F9000
G4 P250 ; settle
; trigger shutter here if needed
G4 P200 ; dwell
; tile row13_9
G0 X101.00 F9000
G4 P250 ; settle
; trigger shutter here if needed
G4 P200 ; dwell
; tile row13_10
G0 X101.00 F9000
G4 P250 ; settle
; trigger shutter here if needed
G4 P200 ; dwell
; tile row13_11
G0 X101.00 F9000
G4 P250 ; settle
; trigger shutter here if needed
G4 P200 ; dwell
; tile row13_12
G0 X101.00 F9000
G4 P250 ; settle
; trigger shutter here if needed
G4 P200 ; dwell
; tile row13_13
G0 X101.00 F9000
G4 P250 ; settle
; trigger shutter here if needed
G4 P200 ; dwell
; tile row13_14
G0 X101.00 F9000
G4 P250 ; settle
; trigger shutter here if needed
G4 P200 ; dwell
; tile row13_15
G0 X101.00 F9000
G4 P250 ; settle
; trigger shutter here if needed
G4 P200 ; dwell
; tile row13_16
G0 X101.00 F9000
G4 P250 ; settle
; trigger shutter here if needed
G4 P200 ; dwell
; tile row13_17
G0 X101.00 F9000
G4 P250 ; settle
; trigger shutter here if needed
G4 P200 ; dwell
; tile row13_18
G0 X101.00 F9000
G4 P250 ; settle
; trigger shutter here if needed
G4 P200 ; dwell
; ---- Column 14 (target X≈109.00 mm) ----
M300 S880 P150 ; beep
M0 Move X to 109.00 mm, then press to continue
; tile row14_0
G0 X109.00 F9000
G4 P250 ; settle
; trigger shutter here if needed
G4 P200 ; dwell
; tile row14_1
G0 X109.00 F9000
G4 P250 ; settle
; trigger shutter here if needed
G4 P200 ; dwell
; tile row14_2
G0 X109.00 F9000
G4 P250 ; settle
; trigger shutter here if needed
G4 P200 ; dwell
; tile row14_3
G0 X109.00 F9000
G4 P250 ; settle
; trigger shutter here if needed
G4 P200 ; dwell
; tile row14_4
G0 X109.00 F9000
G4 P250 ; settle
; trigger shutter here if needed
G4 P200 ; dwell
; tile row14_5
G0 X109.00 F9000
G4 P250 ; settle
; trigger shutter here if needed
G4 P200 ; dwell
; tile row14_6
G0 X109.00 F9000
G4 P250 ; settle
; trigger shutter here if needed
G4 P200 ; dwell
; tile row14_7
G0 X109.00 F9000
G4 P250 ; settle
; trigger shutter here if needed
G4 P200 ; dwell
; tile row14_8
G0 X109.00 F9000
G4 P250 ; settle
; trigger shutter here if needed
G4 P200 ; dwell
; tile row14_9
G0 X109.00 F9000
G4 P250 ; settle
; trigger shutter here if needed
G4 P200 ; dwell
; tile row14_10
G0 X109.00 F9000
G4 P250 ; settle
; trigger shutter here if needed
G4 P200 ; dwell
; tile row14_11
G0 X109.00 F9000
G4 P250 ; settle
; trigger shutter here if needed
G4 P200 ; dwell
; tile row14_12
G0 X109.00 F9000
G4 P250 ; settle
; trigger shutter here if needed
G4 P200 ; dwell
; tile row14_13
G0 X109.00 F9000
G4 P250 ; settle
; trigger shutter here if needed
G4 P200 ; dwell
; tile row14_14
G0 X109.00 F9000
G4 P250 ; settle
; trigger shutter here if needed
G4 P200 ; dwell
; tile row14_15
G0 X109.00 F9000
G4 P250 ; settle
; trigger shutter here if needed
G4 P200 ; dwell
; tile row14_16
G0 X109.00 F9000
G4 P250 ; settle
; trigger shutter here if needed
G4 P200 ; dwell
; tile row14_17
G0 X109.00 F9000
G4 P250 ; settle
; trigger shutter here if needed
G4 P200 ; dwell
; tile row14_18
G0 X109.00 F9000
G4 P250 ; settle
; trigger shutter here if needed
G4 P200 ; dwell
; ---- Column 15 (target X≈117.00 mm) ----
M300 S880 P150 ; beep
M0 Move X to 117.00 mm, then press to continue
; tile row15_0
G0 X117.00 F9000
G4 P250 ; settle
; trigger shutter here if needed
G4 P200 ; dwell
; tile row15_1
G0 X117.00 F9000
G4 P250 ; settle
; trigger shutter here if needed
G4 P200 ; dwell
; tile row15_2
G0 X117.00 F9000
G4 P250 ; settle
; trigger shutter here if needed
G4 P200 ; dwell
; tile row15_3
G0 X117.00 F9000
G4 P250 ; settle
; trigger shutter here if needed
G4 P200 ; dwell
; tile row15_4
G0 X117.00 F9000
G4 P250 ; settle
; trigger shutter here if needed
G4 P200 ; dwell
; tile row15_5
G0 X117.00 F9000
G4 P250 ; settle
; trigger shutter here if needed
G4 P200 ; dwell
; tile row15_6
G0 X117.00 F9000
G4 P250 ; settle
; trigger shutter here if needed
G4 P200 ; dwell
; tile row15_7
G0 X117.00 F9000
G4 P250 ; settle
; trigger shutter here if needed
G4 P200 ; dwell
; tile row15_8
G0 X117.00 F9000
G4 P250 ; settle
; trigger shutter here if needed
G4 P200 ; dwell
; tile row15_9
G0 X117.00 F9000
G4 P250 ; settle
; trigger shutter here if needed
G4 P200 ; dwell
; tile row15_10
G0 X117.00 F9000
G4 P250 ; settle
; trigger shutter here if needed
G4 P200 ; dwell
; tile row15_11
G0 X117.00 F9000
G4 P250 ; settle
; trigger shutter here if needed
G4 P200 ; dwell
; tile row15_12
G0 X117.00 F9000
G4 P250 ; settle
; trigger shutter here if needed
G4 P200 ; dwell
; tile row15_13
G0 X117.00 F9000
G4 P250 ; settle
; trigger shutter here if needed
G4 P200 ; dwell
; tile row15_14
G0 X117.00 F9000
G4 P250 ; settle
; trigger shutter here if needed
G4 P200 ; dwell
; tile row15_15
G0 X117.00 F9000
G4 P250 ; settle
; trigger shutter here if needed
G4 P200 ; dwell
; tile row15_16
G0 X117.00 F9000
G4 P250 ; settle
; trigger shutter here if needed
G4 P200 ; dwell
; tile row15_17
G0 X117.00 F9000
G4 P250 ; settle
; trigger shutter here if needed
G4 P200 ; dwell
; tile row15_18
G0 X117.00 F9000
G4 P250 ; settle
; trigger shutter here if needed
G4 P200 ; dwell
; tile row15_19
G0 X117.00 F9000
G4 P250 ; settle
; trigger shutter here if needed
G4 P200 ; dwell
; ---- Column 16 (target X≈125.00 mm) ----
M300 S880 P150 ; beep
M0 Move X to 125.00 mm, then press to continue
; tile row16_0
G0 X125.00 F9000
G4 P250 ; settle
; trigger shutter here if needed
G4 P200 ; dwell
; tile row16_1
G0 X125.00 F9000
G4 P250 ; settle
; trigger shutter here if needed
G4 P200 ; dwell
; tile row16_2
G0 X125.00 F9000
G4 P250 ; settle
; trigger shutter here if needed
G4 P200 ; dwell
; tile row16_3
G0 X125.00 F9000
G4 P250 ; settle
; trigger shutter here if needed
G4 P200 ; dwell
; tile row16_4
G0 X125.00 F9000
G4 P250 ; settle
; trigger shutter here if needed
G4 P200 ; dwell
; tile row16_5
G0 X125.00 F9000
G4 P250 ; settle
; trigger shutter here if needed
G4 P200 ; dwell
; tile row16_6
G0 X125.00 F9000
G4 P250 ; settle
; trigger shutter here if needed
G4 P200 ; dwell
; tile row16_7
G0 X125.00 F9000
G4 P250 ; settle
; trigger shutter here if needed
G4 P200 ; dwell
; tile row16_8
G0 X125.00 F9000
G4 P250 ; settle
; trigger shutter here if needed
G4 P200 ; dwell
; tile row16_9
G0 X125.00 F9000
G4 P250 ; settle
; trigger shutter here if needed
G4 P200 ; dwell
; tile row16_10
G0 X125.00 F9000
G4 P250 ; settle
; trigger shutter here if needed
G4 P200 ; dwell
; tile row16_11
G0 X125.00 F9000
G4 P250 ; settle
; trigger shutter here if needed
G4 P200 ; dwell
; tile row16_12
G0 X125.00 F9000
G4 P250 ; settle
; trigger shutter here if needed
G4 P200 ; dwell
; tile row16_13
G0 X125.00 F9000
G4 P250 ; settle
; trigger shutter here if needed
G4 P200 ; dwell
; tile row16_14
G0 X125.00 F9000
G4 P250 ; settle
; trigger shutter here if needed
G4 P200 ; dwell
; tile row16_15
G0 X125.00 F9000
G4 P250 ; settle
; trigger shutter here if needed
G4 P200 ; dwell
; tile row16_16
G0 X125.00 F9000
G4 P250 ; settle
; trigger shutter here if needed
G4 P200 ; dwell
; tile row16_17
G0 X125.00 F9000
G4 P250 ; settle
; trigger shutter here if needed
G4 P200 ; dwell
; tile row16_18
G0 X125.00 F9000
G4 P250 ; settle
; trigger shutter here if needed
G4 P200 ; dwell
; tile row16_19
G0 X125.00 F9000
G4 P250 ; settle
; trigger shutter here if needed
G4 P200 ; dwell
; ---- Column 17 (target X≈133.00 mm) ----
M300 S880 P150 ; beep
M0 Move X to 133.00 mm, then press to continue
; tile row17_0
G0 X133.00 F9000
G4 P250 ; settle
; trigger shutter here if needed
G4 P200 ; dwell
; tile row17_1
G0 X133.00 F9000
G4 P250 ; settle
; trigger shutter here if needed
G4 P200 ; dwell
; tile row17_2
G0 X133.00 F9000
G4 P250 ; settle
; trigger shutter here if needed
G4 P200 ; dwell
; tile row17_3
G0 X133.00 F9000
G4 P250 ; settle
; trigger shutter here if needed
G4 P200 ; dwell
; tile row17_4
G0 X133.00 F9000
G4 P250 ; settle
; trigger shutter here if needed
G4 P200 ; dwell
; tile row17_5
G0 X133.00 F9000
G4 P250 ; settle
; trigger shutter here if needed
G4 P200 ; dwell
; tile row17_6
G0 X133.00 F9000
G4 P250 ; settle
; trigger shutter here if needed
G4 P200 ; dwell
; tile row17_7
G0 X133.00 F9000
G4 P250 ; settle
; trigger shutter here if needed
G4 P200 ; dwell
; tile row17_8
G0 X133.00 F9000
G4 P250 ; settle
; trigger shutter here if needed
G4 P200 ; dwell
; tile row17_9
G0 X133.00 F9000
G4 P250 ; settle
; trigger shutter here if needed
G4 P200 ; dwell
; tile row17_10
G0 X133.00 F9000
G4 P250 ; settle
; trigger shutter here if needed
G4 P200 ; dwell
; tile row17_11
G0 X133.00 F9000
G4 P250 ; settle
; trigger shutter here if needed
G4 P200 ; dwell
; tile row17_12
G0 X133.00 F9000
G4 P250 ; settle
; trigger shutter here if needed
G4 P200 ; dwell
; tile row17_13
G0 X133.00 F9000
G4 P250 ; settle
; trigger shutter here if needed
G4 P200 ; dwell
; tile row17_14
G0 X133.00 F9000
G4 P250 ; settle
; trigger shutter here if needed
G4 P200 ; dwell
; tile row17_15
G0 X133.00 F9000
G4 P250 ; settle
; trigger shutter here if needed
G4 P200 ; dwell
; tile row17_16
G0 X133.00 F9000
G4 P250 ; settle
; trigger shutter here if needed
G4 P200 ; dwell
; tile row17_17
G0 X133.00 F9000
G4 P250 ; settle
; trigger shutter here if needed
G4 P200 ; dwell
; ---- Column 18 (target X≈141.00 mm) ----
M300 S880 P150 ; beep
M0 Move X to 141.00 mm, then press to continue
; tile row18_0
G0 X141.00 F9000
G4 P250 ; settle
; trigger shutter here if needed
G4 P200 ; dwell
; tile row18_1
G0 X141.00 F9000
G4 P250 ; settle
; trigger shutter here if needed
G4 P200 ; dwell
; tile row18_2
G0 X141.00 F9000
G4 P250 ; settle
; trigger shutter here if needed
G4 P200 ; dwell
; tile row18_3
G0 X141.00 F9000
G4 P250 ; settle
; trigger shutter here if needed
G4 P200 ; dwell
; tile row18_4
G0 X141.00 F9000
G4 P250 ; settle
; trigger shutter here if needed
G4 P200 ; dwell
; tile row18_5
G0 X141.00 F9000
G4 P250 ; settle
; trigger shutter here if needed
G4 P200 ; dwell
; tile row18_6
G0 X141.00 F9000
G4 P250 ; settle
; trigger shutter here if needed
G4 P200 ; dwell
; tile row18_7
G0 X141.00 F9000
G4 P250 ; settle
; trigger shutter here if needed
G4 P200 ; dwell
; tile row18_8
G0 X141.00 F9000
G4 P250 ; settle
; trigger shutter here if needed
G4 P200 ; dwell
; tile row18_9
G0 X141.00 F9000
G4 P250 ; settle
; trigger shutter here if needed
G4 P200 ; dwell
; tile row18_10
G0 X141.00 F9000
G4 P250 ; settle
; trigger shutter here if needed
G4 P200 ; dwell
; tile row18_11
G0 X141.00 F9000
G4 P250 ; settle
; trigger shutter here if needed
G4 P200 ; dwell
; tile row18_12
G0 X141.00 F9000
G4 P250 ; settle
; trigger shutter here if needed
G4 P200 ; dwell
; tile row18_13
G0 X141.00 F9000
G4 P250 ; settle
; trigger shutter here if needed
G4 P200 ; dwell
; tile row18_14
G0 X141.00 F9000
G4 P250 ; settle
; trigger shutter here if needed
G4 P200 ; dwell
; tile row18_15
G0 X141.00 F9000
G4 P250 ; settle
; trigger shutter here if needed
G4 P200 ; dwell
; tile row18_16
G0 X141.00 F9000
G4 P250 ; settle
; trigger shutter here if needed
G4 P200 ; dwell
; tile row18_17
G0 X141.00 F9000
G4 P250 ; settle
; trigger shutter here if needed
G4 P200 ; dwell
; ---- Column 19 (target X≈149.00 mm) ----
M300 S880 P150 ; beep
M0 Move X to 149.00 mm, then press to continue
; tile row19_0
G0 X149.00 F9000
G4 P250 ; settle
; trigger shutter here if needed
G4 P200 ; dwell
; tile row19_1
G0 X149.00 F9000
G4 P250 ; settle
; trigger shutter here if needed
G4 P200 ; dwell
; tile row19_2
G0 X149.00 F9000
G4 P250 ; settle
; trigger shutter here if needed
G4 P200 ; dwell
; tile row19_3
G0 X149.00 F9000
G4 P250 ; settle
; trigger shutter here if needed
G4 P200 ; dwell
; tile row19_4
G0 X149.00 F9000
G4 P250 ; settle
; trigger shutter here if needed
G4 P200 ; dwell
; tile row19_5
G0 X149.00 F9000
G4 P250 ; settle
; trigger shutter here if needed
G4 P200 ; dwell
; tile row19_6
G0 X149.00 F9000
G4 P250 ; settle
; trigger shutter here if needed
G4 P200 ; dwell
; tile row19_7
G0 X149.00 F9000
G4 P250 ; settle
; trigger shutter here if needed
G4 P200 ; dwell
; tile row19_8
G0 X149.00 F9000
G4 P250 ; settle
; trigger shutter here if needed
G4 P200 ; dwell
; tile row19_9
G0 X149.00 F9000
G4 P250 ; settle
; trigger shutter here if needed
G4 P200 ; dwell
; tile row19_10
G0 X149.00 F9000
G4 P250 ; settle
; trigger shutter here if needed
G4 P200 ; dwell
; tile row19_11
G0 X149.00 F9000
G4 P250 ; settle
; trigger shutter here if needed
G4 P200 ; dwell
; tile row19_12
G0 X149.00 F9000
G4 P250 ; settle
; trigger shutter here if needed
G4 P200 ; dwell
; tile row19_13
G0 X149.00 F9000
G4 P250 ; settle
; trigger shutter here if needed
G4 P200 ; dwell
; tile row19_14
G0 X149.00 F9000
G4 P250 ; settle
; trigger shutter here if needed
G4 P200 ; dwell
; tile row19_15
G0 X149.00 F9000
G4 P250 ; settle
; trigger shutter here if needed
G4 P200 ; dwell
; tile row19_16
G0 X149.00 F9000
G4 P250 ; settle
; trigger shutter here if needed
G4 P200 ; dwell
; tile row19_17
G0 X149.00 F9000
G4 P250 ; settle
; trigger shutter here if needed
G4 P200 ; dwell
; tile row19_18
G0 X149.00 F9000
G4 P250 ; settle
; trigger shutter here if needed
G4 P200 ; dwell
; tile row19_19
G0 X149.00 F9000
G4 P250 ; settle
; trigger shutter here if needed
G4 P200 ; dwell
; ---- Column 20 (target X≈157.00 mm) ----
M300 S880 P150 ; beep
M0 Move X to 157.00 mm, then press to continue
; tile row20_0
G0 X157.00 F9000
G4 P250 ; settle
; trigger shutter here if needed
G4 P200 ; dwell
; tile row20_1
G0 X157.00 F9000
G4 P250 ; settle
; trigger shutter here if needed
G4 P200 ; dwell
; tile row20_2
G0 X157.00 F9000
G4 P250 ; settle
; trigger shutter here if needed
G4 P200 ; dwell
; tile row20_3
G0 X157.00 F9000
G4 P250 ; settle
; trigger shutter here if needed
G4 P200 ; dwell
; tile row20_4
G0 X157.00 F9000
G4 P250 ; settle
; trigger shutter here if needed
G4 P200 ; dwell
; tile row20_5
G0 X157.00 F9000
G4 P250 ; settle
; trigger shutter here if needed
G4 P200 ; dwell
; tile row20_6
G0 X157.00 F9000
G4 P250 ; settle
; trigger shutter here if needed
G4 P200 ; dwell
; tile row20_7
G0 X157.00 F9000
G4 P250 ; settle
; trigger shutter here if needed
G4 P200 ; dwell
; tile row20_8
G0 X157.00 F9000
G4 P250 ; settle
; trigger shutter here if needed
G4 P200 ; dwell
; tile row20_9
G0 X157.00 F9000
G4 P250 ; settle
; trigger shutter here if needed
G4 P200 ; dwell
; tile row20_10
G0 X157.00 F9000
G4 P250 ; settle
; trigger shutter here if needed
G4 P200 ; dwell
; tile row20_11
G0 X157.00 F9000
G4 P250 ; settle
; trigger shutter here if needed
G4 P200 ; dwell
; tile row20_12
G0 X157.00 F9000
G4 P250 ; settle
; trigger shutter here if needed
G4 P200 ; dwell
; tile row20_13
G0 X157.00 F9000
G4 P250 ; settle
; trigger shutter here if needed
G4 P200 ; dwell
; tile row20_14
G0 X157.00 F9000
G4 P250 ; settle
; trigger shutter here if needed
G4 P200 ; dwell
; tile row20_15
G0 X157.00 F9000
G4 P250 ; settle
; trigger shutter here if needed
G4 P200 ; dwell
; tile row20_16
G0 X157.00 F9000
G4 P250 ; settle
; trigger shutter here if needed
G4 P200 ; dwell
; tile row20_17
G0 X157.00 F9000
G4 P250 ; settle
; trigger shutter here if needed
G4 P200 ; dwell
; tile row20_18
G0 X157.00 F9000
G4 P250 ; settle
; trigger shutter here if needed
G4 P200 ; dwell
; ---- Column 21 (target X≈165.00 mm) ----
M300 S880 P150 ; beep
M0 Move X to 165.00 mm, then press to continue
; tile row21_0
G0 X165.00 F9000
G4 P250 ; settle
; trigger shutter here if needed
G4 P200 ; dwell
; tile row21_1
G0 X165.00 F9000
G4 P250 ; settle
; trigger shutter here if needed
G4 P200 ; dwell
; tile row21_2
G0 X165.00 F9000
G4 P250 ; settle
; trigger shutter here if needed
G4 P200 ; dwell
; tile row21_3
G0 X165.00 F9000
G4 P250 ; settle
; trigger shutter here if needed
G4 P200 ; dwell
; tile row21_4
G0 X165.00 F9000
G4 P250 ; settle
; trigger shutter here if needed
G4 P200 ; dwell
; tile row21_5
G0 X165.00 F9000
G4 P250 ; settle
; trigger shutter here if needed
G4 P200 ; dwell
; tile row21_6
G0 X165.00 F9000
G4 P250 ; settle
; trigger shutter here if needed
G4 P200 ; dwell
; tile row21_7
G0 X165.00 F9000
G4 P250 ; settle
; trigger shutter here if needed
G4 P200 ; dwell
; tile row21_8
G0 X165.00 F9000
G4 P250 ; settle
; trigger shutter here if needed
G4 P200 ; dwell
; tile row21_9
G0 X165.00 F9000
G4 P250 ; settle
; trigger shutter here if needed
G4 P200 ; dwell
; tile row21_10
G0 X165.00 F9000
G4 P250 ; settle
; trigger shutter here if needed
G4 P200 ; dwell
; tile row21_11
G0 X165.00 F9000
G4 P250 ; settle
; trigger shutter here if needed
G4 P200 ; dwell
; tile row21_12
G0 X165.00 F9000
G4 P250 ; settle
; trigger shutter here if needed
G4 P200 ; dwell
; tile row21_13
G0 X165.00 F9000
G4 P250 ; settle
; trigger shutter here if needed
G4 P200 ; dwell
; tile row21_14
G0 X165.00 F9000
G4 P250 ; settle
; trigger shutter here if needed
G4 P200 ; dwell
; tile row21_15
G0 X165.00 F9000
G4 P250 ; settle
; trigger shutter here if needed
G4 P200 ; dwell
; tile row21_16
G0 X165.00 F9000
G4 P250 ; settle
; trigger shutter here if needed
G4 P200 ; dwell
; tile row21_17
G0 X165.00 F9000
G4 P250 ; settle
; trigger shutter here if needed
G4 P200 ; dwell
; tile row21_18
G0 X165.00 F9000
G4 P250 ; settle
; trigger shutter here if needed
G4 P200 ; dwell
; ---- Column 22 (target X≈173.00 mm) ----
M300 S880 P150 ; beep
M0 Move X to 173.00 mm, then press to continue
; tile row22_0
G0 X173.00 F9000
G4 P250 ; settle
; trigger shutter here if needed
G4 P200 ; dwell
; tile row22_1
G0 X173.00 F9000
G4 P250 ; settle
; trigger shutter here if needed
G4 P200 ; dwell
; tile row22_2
G0 X173.00 F9000
G4 P250 ; settle
; trigger shutter here if needed
G4 P200 ; dwell
; tile row22_3
G0 X173.00 F9000
G4 P250 ; settle
; trigger shutter here if needed
G4 P200 ; dwell
; tile row22_4
G0 X173.00 F9000
G4 P250 ; settle
; trigger shutter here if needed
G4 P200 ; dwell
; tile row22_5
G0 X173.00 F9000
G4 P250 ; settle
; trigger shutter here if needed
G4 P200 ; dwell
; tile row22_6
G0 X173.00 F9000
G4 P250 ; settle
; trigger shutter here if needed
G4 P200 ; dwell
; tile row22_7
G0 X173.00 F9000
G4 P250 ; settle
; trigger shutter here if needed
G4 P200 ; dwell
; tile row22_8
G0 X173.00 F9000
G4 P250 ; settle
; trigger shutter here if needed
G4 P200 ; dwell
; tile row22_9
G0 X173.00 F9000
G4 P250 ; settle
; trigger shutter here if needed
G4 P200 ; dwell
; tile row22_10
G0 X173.00 F9000
G4 P250 ; settle
; trigger shutter here if needed
G4 P200 ; dwell
; tile row22_11
G0 X173.00 F9000
G4 P250 ; settle
; trigger shutter here if needed
G4 P200 ; dwell
; tile row22_12
G0 X173.00 F9000
G4 P250 ; settle
; trigger shutter here if needed
G4 P200 ; dwell
; tile row22_13
G0 X173.00 F9000
G4 P250 ; settle
; trigger shutter here if needed
G4 P200 ; dwell
; tile row22_14
G0 X173.00 F9000
G4 P250 ; settle
; trigger shutter here if needed
G4 P200 ; dwell
; tile row22_15
G0 X173.00 F9000
G4 P250 ; settle
; trigger shutter here if needed
G4 P200 ; dwell
; tile row22_16
G0 X173.00 F9000
G4 P250 ; settle
; trigger shutter here if needed
G4 P200 ; dwell
; tile row22_17
G0 X173.00 F9000
G4 P250 ; settle
; trigger shutter here if needed
G4 P200 ; dwell
; tile row22_18
G0 X173.00 F9000
G4 P250 ; settle
; trigger shutter here if needed
G4 P200 ; dwell
; tile row22_19
G0 X173.00 F9000
G4 P250 ; settle
; trigger shutter here if needed
G4 P200 ; dwell
; ---- Column 23 (target X≈181.00 mm) ----
M300 S880 P150 ; beep
M0 Move X to 181.00 mm, then press to continue
; tile row23_0
G0 X181.00 F9000
G4 P250 ; settle
; trigger shutter here if needed
G4 P200 ; dwell
; tile row23_1
G0 X181.00 F9000
G4 P250 ; settle
; trigger shutter here if needed
G4 P200 ; dwell
; tile row23_2
G0 X181.00 F9000
G4 P250 ; settle
; trigger shutter here if needed
G4 P200 ; dwell
; tile row23_3
G0 X181.00 F9000
G4 P250 ; settle
; trigger shutter here if needed
G4 P200 ; dwell
; tile row23_4
G0 X181.00 F9000
G4 P250 ; settle
; trigger shutter here if needed
G4 P200 ; dwell
; tile row23_5
G0 X181.00 F9000
G4 P250 ; settle
; trigger shutter here if needed
G4 P200 ; dwell
; tile row23_6
G0 X181.00 F9000
G4 P250 ; settle
; trigger shutter here if needed
G4 P200 ; dwell
; tile row23_7
G0 X181.00 F9000
G4 P250 ; settle
; trigger shutter here if needed
G4 P200 ; dwell
; tile row23_8
G0 X181.00 F9000
G4 P250 ; settle
; trigger shutter here if needed
G4 P200 ; dwell
; tile row23_9
G0 X181.00 F9000
G4 P250 ; settle
; trigger shutter here if needed
G4 P200 ; dwell
; tile row23_10
G0 X181.00 F9000
G4 P250 ; settle
; trigger shutter here if needed
G4 P200 ; dwell
; tile row23_11
G0 X181.00 F9000
G4 P250 ; settle
; trigger shutter here if needed
G4 P200 ; dwell
; tile row23_12
G0 X181.00 F9000
G4 P250 ; settle
; trigger shutter here if needed
G4 P200 ; dwell
; tile row23_13
G0 X181.00 F9000
G4 P250 ; settle
; trigger shutter here if needed
G4 P200 ; dwell
; tile row23_14
G0 X181.00 F9000
G4 P250 ; settle
; trigger shutter here if needed
G4 P200 ; dwell
; tile row23_15
G0 X181.00 F9000
G4 P250 ; settle
; trigger shutter here if needed
G4 P200 ; dwell
; tile row23_16
G0 X181.00 F9000
G4 P250 ; settle
; trigger shutter here if needed
G4 P200 ; dwell
; tile row23_17
G0 X181.00 F9000
G4 P250 ; settle
; trigger shutter here if needed
G4 P200 ; dwell
; tile row23_18
G0 X181.00 F9000
G4 P250 ; settle
; trigger shutter here if needed
G4 P200 ; dwell
; tile row23_19
G0 X181.00 F9000
G4 P250 ; settle
; trigger shutter here if needed
G4 P200 ; dwell
; tile row23_20
G0 X181.00 F9000
G4 P250 ; settle
; trigger shutter here if needed
G4 P200 ; dwell
; ---- Column 24 (target X≈189.00 mm) ----
M300 S880 P150 ; beep
M0 Move X to 189.00 mm, then press to continue
; tile row24_0
G0 X189.00 F9000
G4 P250 ; settle
; trigger shutter here if needed
G4 P200 ; dwell
; tile row24_1
G0 X189.00 F9000
G4 P250 ; settle
; trigger shutter here if needed
G4 P200 ; dwell
; tile row24_2
G0 X189.00 F9000
G4 P250 ; settle
; trigger shutter here if needed
G4 P200 ; dwell
; tile row24_3
G0 X189.00 F9000
G4 P250 ; settle
; trigger shutter here if needed
G4 P200 ; dwell
; tile row24_4
G0 X189.00 F9000
G4 P250 ; settle
; trigger shutter here if needed
G4 P200 ; dwell
; tile row24_5
G0 X189.00 F9000
G4 P250 ; settle
; trigger shutter here if needed
G4 P200 ; dwell
; tile row24_6
G0 X189.00 F9000
G4 P250 ; settle
; trigger shutter here if needed
G4 P200 ; dwell
; tile row24_7
G0 X189.00 F9000
G4 P250 ; settle
; trigger shutter here if needed
G4 P200 ; dwell
; tile row24_8
G0 X189.00 F9000
G4 P250 ; settle
; trigger shutter here if needed
G4 P200 ; dwell
; tile row24_9
G0 X189.00 F9000
G4 P250 ; settle
; trigger shutter here if needed
G4 P200 ; dwell
; tile row24_10
G0 X189.00 F9000
G4 P250 ; settle
; trigger shutter here if needed
G4 P200 ; dwell
; tile row24_11
G0 X189.00 F9000
G4 P250 ; settle
; trigger shutter here if needed
G4 P200 ; dwell
; tile row24_12
G0 X189.00 F9000
G4 P250 ; settle
; trigger shutter here if needed
G4 P200 ; dwell
; tile row24_13
G0 X189.00 F9000
G4 P250 ; settle
; trigger shutter here if needed
G4 P200 ; dwell
; tile row24_14
G0 X189.00 F9000
G4 P250 ; settle
; trigger shutter here if needed
G4 P200 ; dwell
; tile row24_15
G0 X189.00 F9000
G4 P250 ; settle
; trigger shutter here if needed
G4 P200 ; dwell
; tile row24_16
G0 X189.00 F9000
G4 P250 ; settle
; trigger shutter here if needed
G4 P200 ; dwell
; tile row24_17
G0 X189.00 F9000
G4 P250 ; settle
; trigger shutter here if needed
G4 P200 ; dwell
; tile row24_18
G0 X189.00 F9000
G4 P250 ; settle
; trigger shutter here if needed
G4 P200 ; dwell
; tile row24_19
G0 X189.00 F9000
G4 P250 ; settle
; trigger shutter here if needed
G4 P200 ; dwell
; tile row24_20
G0 X189.00 F9000
G4 P250 ; settle
; trigger shutter here if needed
G4 P200 ; dwell
; tile row24_21
G0 X189.00 F9000
G4 P250 ; settle
; trigger shutter here if needed
G4 P200 ; dwell
; tile row24_22
G0 X189.00 F9000
G4 P250 ; settle
; trigger shutter here if needed
G4 P200 ; dwell
; ---- Column 25 (target X≈197.00 mm) ----
M300 S880 P150 ; beep
M0 Move X to 197.00 mm, then press to continue
; tile row25_0
G0 X197.00 F9000
G4 P250 ; settle
; trigger shutter here if needed
G4 P200 ; dwell
; tile row25_1
G0 X197.00 F9000
G4 P250 ; settle
; trigger shutter here if needed
G4 P200 ; dwell
; tile row25_2
G0 X197.00 F9000
G4 P250 ; settle
; trigger shutter here if needed
G4 P200 ; dwell
; tile row25_3
G0 X197.00 F9000
G4 P250 ; settle
; trigger shutter here if needed
G4 P200 ; dwell
; tile row25_4
G0 X197.00 F9000
G4 P250 ; settle
; trigger shutter here if needed
G4 P200 ; dwell
; tile row25_5
G0 X197.00 F9000
G4 P250 ; settle
; trigger shutter here if needed
G4 P200 ; dwell
; tile row25_6
G0 X197.00 F9000
G4 P250 ; settle
; trigger shutter here if needed
G4 P200 ; dwell
; tile row25_7
G0 X197.00 F9000
G4 P250 ; settle
; trigger shutter here if needed
G4 P200 ; dwell
; tile row25_8
G0 X197.00 F9000
G4 P250 ; settle
; trigger shutter here if needed
G4 P200 ; dwell
; tile row25_9
G0 X197.00 F9000
G4 P250 ; settle
; trigger shutter here if needed
G4 P200 ; dwell
; tile row25_10
G0 X197.00 F9000
G4 P250 ; settle
; trigger shutter here if needed
G4 P200 ; dwell
; tile row25_11
G0 X197.00 F9000
G4 P250 ; settle
; trigger shutter here if needed
G4 P200 ; dwell
; tile row25_12
G0 X197.00 F9000
G4 P250 ; settle
; trigger shutter here if needed
G4 P200 ; dwell
; tile row25_13
G0 X197.00 F9000
G4 P250 ; settle
; trigger shutter here if needed
G4 P200 ; dwell
; tile row25_14
G0 X197.00 F9000
G4 P250 ; settle
; trigger shutter here if needed
G4 P200 ; dwell
; tile row25_15
G0 X197.00 F9000
G4 P250 ; settle
; trigger shutter here if needed
G4 P200 ; dwell
; tile row25_16
G0 X197.00 F9000
G4 P250 ; settle
; trigger shutter here if needed
G4 P200 ; dwell
; tile row25_17
G0 X197.00 F9000
G4 P250 ; settle
; trigger shutter here if needed
G4 P200 ; dwell
; tile row25_18
G0 X197.00 F9000
G4 P250 ; settle
; trigger shutter here if needed
G4 P200 ; dwell
; tile row25_19
G0 X197.00 F9000
G4 P250 ; settle
; trigger shutter here if needed
G4 P200 ; dwell
; tile row25_20
G0 X197.00 F9000
G4 P250 ; settle
; trigger shutter here if needed
G4 P200 ; dwell
; tile row25_21
G0 X197.00 F9000
G4 P250 ; settle
; trigger shutter here if needed
G4 P200 ; dwell
; tile row25_22
G0 X197.00 F9000
G4 P250 ; settle
; trigger shutter here if needed
G4 P200 ; dwell
; ---- Column 26 (target X≈205.00 mm) ----
M300 S880 P150 ; beep
M0 Move X to 205.00 mm, then press to continue
; tile row26_0
G0 X205.00 F9000
G4 P250 ; settle
; trigger shutter here if needed
G4 P200 ; dwell
; tile row26_1
G0 X205.00 F9000
G4 P250 ; settle
; trigger shutter here if needed
G4 P200 ; dwell
; tile row26_2
G0 X205.00 F9000
G4 P250 ; settle
; trigger shutter here if needed
G4 P200 ; dwell
; tile row26_3
G0 X205.00 F9000
G4 P250 ; settle
; trigger shutter here if needed
G4 P200 ; dwell
; tile row26_4
G0 X205.00 F9000
G4 P250 ; settle
; trigger shutter here if needed
G4 P200 ; dwell
; tile row26_5
G0 X205.00 F9000
G4 P250 ; settle
; trigger shutter here if needed
G4 P200 ; dwell
; tile row26_6
G0 X205.00 F9000
G4 P250 ; settle
; trigger shutter here if needed
G4 P200 ; dwell
; tile row26_7
G0 X205.00 F9000
G4 P250 ; settle
; trigger shutter here if needed
G4 P200 ; dwell
; tile row26_8
G0 X205.00 F9000
G4 P250 ; settle
; trigger shutter here if needed
G4 P200 ; dwell
; tile row26_9
G0 X205.00 F9000
G4 P250 ; settle
; trigger shutter here if needed
G4 P200 ; dwell
; tile row26_10
G0 X205.00 F9000
G4 P250 ; settle
; trigger shutter here if needed
G4 P200 ; dwell
; tile row26_11
G0 X205.00 F9000
G4 P250 ; settle
; trigger shutter here if needed
G4 P200 ; dwell
; tile row26_12
G0 X205.00 F9000
G4 P250 ; settle
; trigger shutter here if needed
G4 P200 ; dwell
; tile row26_13
G0 X205.00 F9000
G4 P250 ; settle
; trigger shutter here if needed
G4 P200 ; dwell
; tile row26_14
G0 X205.00 F9000
G4 P250 ; settle
; trigger shutter here if needed
G4 P200 ; dwell
; tile row26_15
G0 X205.00 F9000
G4 P250 ; settle
; trigger shutter here if needed
G4 P200 ; dwell
; tile row26_16
G0 X205.00 F9000
G4 P250 ; settle
; trigger shutter here if needed
G4 P200 ; dwell
; tile row26_17
G0 X205.00 F9000
G4 P250 ; settle
; trigger shutter here if needed
G4 P200 ; dwell
; tile row26_18
G0 X205.00 F9000
G4 P250 ; settle
; trigger shutter here if needed
G4 P200 ; dwell
; tile row26_19
G0 X205.00 F9000
G4 P250 ; settle
; trigger shutter here if needed
G4 P200 ; dwell
; tile row26_20
G0 X205.00 F9000
G4 P250 ; settle
; trigger shutter here if needed
G4 P200 ; dwell
; tile row26_21
G0 X205.00 F9000
G4 P250 ; settle
; trigger shutter here if needed
G4 P200 ; dwell
; tile row26_22
G0 X205.00 F9000
G4 P250 ; settle
; trigger shutter here if needed
G4 P200 ; dwell
; ---- Column 27 (target X≈213.00 mm) ----
M300 S880 P150 ; beep
M0 Move X to 213.00 mm, then press to continue
; tile row27_0
G0 X213.00 F9000
G4 P250 ; settle
; trigger shutter here if needed
G4 P200 ; dwell
; tile row27_1
G0 X213.00 F9000
G4 P250 ; settle
; trigger shutter here if needed
G4 P200 ; dwell
; tile row27_2
G0 X213.00 F9000
G4 P250 ; settle
; trigger shutter here if needed
G4 P200 ; dwell
; tile row27_3
G0 X213.00 F9000
G4 P250 ; settle
; trigger shutter here if needed
G4 P200 ; dwell
; tile row27_4
G0 X213.00 F9000
G4 P250 ; settle
; trigger shutter here if needed
G4 P200 ; dwell
; tile row27_5
G0 X213.00 F9000
G4 P250 ; settle
; trigger shutter here if needed
G4 P200 ; dwell
; tile row27_6
G0 X213.00 F9000
G4 P250 ; settle
; trigger shutter here if needed
G4 P200 ; dwell
; tile row27_7
G0 X213.00 F9000
G4 P250 ; settle
; trigger shutter here if needed
G4 P200 ; dwell
; tile row27_8
G0 X213.00 F9000
G4 P250 ; settle
; trigger shutter here if needed
G4 P200 ; dwell
; tile row27_9
G0 X213.00 F9000
G4 P250 ; settle
; trigger shutter here if needed
G4 P200 ; dwell
; tile row27_10
G0 X213.00 F9000
G4 P250 ; settle
; trigger shutter here if needed
G4 P200 ; dwell
; tile row27_11
G0 X213.00 F9000
G4 P250 ; settle
; trigger shutter here if needed
G4 P200 ; dwell
; tile row27_12
G0 X213.00 F9000
G4 P250 ; settle
; trigger shutter here if needed
G4 P200 ; dwell
; tile row27_13
G0 X213.00 F9000
G4 P250 ; settle
; trigger shutter here if needed
G4 P200 ; dwell
; tile row27_14
G0 X213.00 F9000
G4 P250 ; settle
; trigger shutter here if needed
G4 P200 ; dwell
; tile row27_15
G0 X213.00 F9000
G4 P250 ; settle
; trigger shutter here if needed
G4 P200 ; dwell
; tile row27_16
G0 X213.00 F9000
G4 P250 ; settle
; trigger shutter here if needed
G4 P200 ; dwell
; tile row27_17
G0 X213.00 F9000
G4 P250 ; settle
; trigger shutter here if needed
G4 P200 ; dwell
; tile row27_18
G0 X213.00 F9000
G4 P250 ; settle
; trigger shutter here if needed
G4 P200 ; dwell
; tile row27_19
G0 X213.00 F9000
G4 P250 ; settle
; trigger shutter here if needed
G4 P200 ; dwell
; tile row27_20
G0 X213.00 F9000
G4 P250 ; settle
; trigger shutter here if needed
G4 P200 ; dwell
; tile row27_21
G0 X213.00 F9000
G4 P250 ; settle
; trigger shutter here if needed
G4 P200 ; dwell
; ---- Column 28 (target X≈221.00 mm) ----
M300 S880 P150 ; beep
M0 Move X to 221.00 mm, then press to continue
; tile row28_0
G0 X221.00 F9000
G4 P250 ; settle
; trigger shutter here if needed
G4 P200 ; dwell
; tile row28_1
G0 X221.00 F9000
G4 P250 ; settle
; trigger shutter here if needed
G4 P200 ; dwell
; tile row28_2
G0 X221.00 F9000
G4 P250 ; settle
; trigger shutter here if needed
G4 P200 ; dwell
; tile row28_3
G0 X221.00 F9000
G4 P250 ; settle
; trigger shutter here if needed
G4 P200 ; dwell
; tile row28_4
G0 X221.00 F9000
G4 P250 ; settle
; trigger shutter here if needed
G4 P200 ; dwell
; tile row28_5
G0 X221.00 F9000
G4 P250 ; settle
; trigger shutter here if needed
G4 P200 ; dwell
; tile row28_6
G0 X221.00 F9000
G4 P250 ; settle
; trigger shutter here if needed
G4 P200 ; dwell
; tile row28_7
G0 X221.00 F9000
G4 P250 ; settle
; trigger shutter here if needed
G4 P200 ; dwell
; tile row28_8
G0 X221.00 F9000
G4 P250 ; settle
; trigger shutter here if needed
G4 P200 ; dwell
; tile row28_9
G0 X221.00 F9000
G4 P250 ; settle
; trigger shutter here if needed
G4 P200 ; dwell
; tile row28_10
G0 X221.00 F9000
G4 P250 ; settle
; trigger shutter here if needed
G4 P200 ; dwell
; tile row28_11
G0 X221.00 F9000
G4 P250 ; settle
; trigger shutter here if needed
G4 P200 ; dwell
; tile row28_12
G0 X221.00 F9000
G4 P250 ; settle
; trigger shutter here if needed
G4 P200 ; dwell
; tile row28_13
G0 X221.00 F9000
G4 P250 ; settle
; trigger shutter here if needed
G4 P200 ; dwell
; tile row28_14
G0 X221.00 F9000
G4 P250 ; settle
; trigger shutter here if needed
G4 P200 ; dwell
; tile row28_15
G0 X221.00 F9000
G4 P250 ; settle
; trigger shutter here if needed
G4 P200 ; dwell
; tile row28_16
G0 X221.00 F9000
G4 P250 ; settle
; trigger shutter here if needed
G4 P200 ; dwell
; tile row28_17
G0 X221.00 F9000
G4 P250 ; settle
; trigger shutter here if needed
G4 P200 ; dwell
; tile row28_18
G0 X221.00 F9000
G4 P250 ; settle
; trigger shutter here if needed
G4 P200 ; dwell
; tile row28_19
G0 X221.00 F9000
G4 P250 ; settle
; trigger shutter here if needed
G4 P200 ; dwell
; tile row28_20
G0 X221.00 F9000
G4 P250 ; settle
; trigger shutter here if needed
G4 P200 ; dwell
; tile row28_21
G0 X221.00 F9000
G4 P250 ; settle
; trigger shutter here if needed
G4 P200 ; dwell
; ---- Column 29 (target X≈229.00 mm) ----
M300 S880 P150 ; beep
M0 Move X to 229.00 mm, then press to continue
; tile row29_0
G0 X229.00 F9000
G4 P250 ; settle
; trigger shutter here if needed
G4 P200 ; dwell
; tile row29_1
G0 X229.00 F9000
G4 P250 ; settle
; trigger shutter here if needed
G4 P200 ; dwell
; tile row29_2
G0 X229.00 F9000
G4 P250 ; settle
; trigger shutter here if needed
G4 P200 ; dwell
; tile row29_3
G0 X229.00 F9000
G4 P250 ; settle
; trigger shutter here if needed
G4 P200 ; dwell
; tile row29_4
G0 X229.00 F9000
G4 P250 ; settle
; trigger shutter here if needed
G4 P200 ; dwell
; tile row29_5
G0 X229.00 F9000
G4 P250 ; settle
; trigger shutter here if needed
G4 P200 ; dwell
; tile row29_6
G0 X229.00 F9000
G4 P250 ; settle
; trigger shutter here if needed
G4 P200 ; dwell
; tile row29_7
G0 X229.00 F9000
G4 P250 ; settle
; trigger shutter here if needed
G4 P200 ; dwell
; tile row29_8
G0 X229.00 F9000
G4 P250 ; settle
; trigger shutter here if needed
G4 P200 ; dwell
; tile row29_9
G0 X229.00 F9000
G4 P250 ; settle
; trigger shutter here if needed
G4 P200 ; dwell
; tile row29_10
G0 X229.00 F9000
G4 P250 ; settle
; trigger shutter here if needed
G4 P200 ; dwell
; tile row29_11
G0 X229.00 F9000
G4 P250 ; settle
; trigger shutter here if needed
G4 P200 ; dwell
; tile row29_12
G0 X229.00 F9000
G4 P250 ; settle
; trigger shutter here if needed
G4 P200 ; dwell
; tile row29_13
G0 X229.00 F9000
G4 P250 ; settle
; trigger shutter here if needed
G4 P200 ; dwell
; tile row29_14
G0 X229.00 F9000
G4 P250 ; settle
; trigger shutter here if needed
G4 P200 ; dwell
; tile row29_15
G0 X229.00 F9000
G4 P250 ; settle
; trigger shutter here if needed
G4 P200 ; dwell
; tile row29_16
G0 X229.00 F9000
G4 P250 ; settle
; trigger shutter here if needed
G4 P200 ; dwell
; tile row29_17
G0 X229.00 F9000
G4 P250 ; settle
; trigger shutter here if needed
G4 P200 ; dwell
; tile row29_18
G0 X229.00 F9000
G4 P250 ; settle
; trigger shutter here if needed
G4 P200 ; dwell
; tile row29_19
G0 X229.00 F9000
G4 P250 ; settle
; trigger shutter here if needed
G4 P200 ; dwell
; tile row29_20
G0 X229.00 F9000
G4 P250 ; settle
; trigger shutter here if needed
G4 P200 ; dwell
; tile row29_21
G0 X229.00 F9000
G4 P250 ; settle
; trigger shutter here if needed
G4 P200 ; dwell
; ---- Column 30 (target X≈237.00 mm) ----
M300 S880 P150 ; beep
M0 Move X to 237.00 mm, then press to continue
; tile row30_0
G0 X237.00 F9000
G4 P250 ; settle
; trigger shutter here if needed
G4 P200 ; dwell
; tile row30_1
G0 X237.00 F9000
G4 P250 ; settle
; trigger shutter here if needed
G4 P200 ; dwell
; tile row30_2
G0 X237.00 F9000
G4 P250 ; settle
; trigger shutter here if needed
G4 P200 ; dwell
; tile row30_3
G0 X237.00 F9000
G4 P250 ; settle
; trigger shutter here if needed
G4 P200 ; dwell
; tile row30_4
G0 X237.00 F9000
G4 P250 ; settle
; trigger shutter here if needed
G4 P200 ; dwell
; tile row30_5
G0 X237.00 F9000
G4 P250 ; settle
; trigger shutter here if needed
G4 P200 ; dwell
; tile row30_6
G0 X237.00 F9000
G4 P250 ; settle
; trigger shutter here if needed
G4 P200 ; dwell
; tile row30_7
G0 X237.00 F9000
G4 P250 ; settle
; trigger shutter here if needed
G4 P200 ; dwell
; tile row30_8
G0 X237.00 F9000
G4 P250 ; settle
; trigger shutter here if needed
G4 P200 ; dwell
; tile row30_9
G0 X237.00 F9000
G4 P250 ; settle
; trigger shutter here if needed
G4 P200 ; dwell
; tile row30_10
G0 X237.00 F9000
G4 P250 ; settle
; trigger shutter here if needed
G4 P200 ; dwell
; tile row30_11
G0 X237.00 F9000
G4 P250 ; settle
; trigger shutter here if needed
G4 P200 ; dwell
; tile row30_12
G0 X237.00 F9000
G4 P250 ; settle
; trigger shutter here if needed
G4 P200 ; dwell
; tile row30_13
G0 X237.00 F9000
G4 P250 ; settle
; trigger shutter here if needed
G4 P200 ; dwell
; tile row30_14
G0 X237.00 F9000
G4 P250 ; settle
; trigger shutter here if needed
G4 P200 ; dwell
; tile row30_15
G0 X237.00 F9000
G4 P250 ; settle
; trigger shutter here if needed
G4 P200 ; dwell
; tile row30_16
G0 X237.00 F9000
G4 P250 ; settle
; trigger shutter here if needed
G4 P200 ; dwell
; tile row30_17
G0 X237.00 F9000
G4 P250 ; settle
; trigger shutter here if needed
G4 P200 ; dwell
; tile row30_18
G0 X237.00 F9000
G4 P250 ; settle
; trigger shutter here if needed
G4 P200 ; dwell
; tile row30_19
G0 X237.00 F9000
G4 P250 ; settle
; trigger shutter here if needed
G4 P200 ; dwell
; tile row30_20
G0 X237.00 F9000
G4 P250 ; settle
; trigger shutter here if needed
G4 P200 ; dwell
; tile row30_21
G0 X237.00 F9000
G4 P250 ; settle
; trigger shutter here if needed
G4 P200 ; dwell
; ---- Column 31 (target X≈245.00 mm) ----
M300 S880 P150 ; beep
M0 Move X to 245.00 mm, then press to continue
; tile row31_0
G0 X245.00 F9000
G4 P250 ; settle
; trigger shutter here if needed
G4 P200 ; dwell
; tile row31_1
G0 X245.00 F9000
G4 P250 ; settle
; trigger shutter here if needed
G4 P200 ; dwell
; tile row31_2
G0 X245.00 F9000
G4 P250 ; settle
; trigger shutter here if needed
G4 P200 ; dwell
; tile row31_3
G0 X245.00 F9000
G4 P250 ; settle
; trigger shutter here if needed
G4 P200 ; dwell
; tile row31_4
G0 X245.00 F9000
G4 P250 ; settle
; trigger shutter here if needed
G4 P200 ; dwell
; tile row31_5
G0 X245.00 F9000
G4 P250 ; settle
; trigger shutter here if needed
G4 P200 ; dwell
; tile row31_6
G0 X245.00 F9000
G4 P250 ; settle
; trigger shutter here if needed
G4 P200 ; dwell
; tile row31_7
G0 X245.00 F9000
G4 P250 ; settle
; trigger shutter here if needed
G4 P200 ; dwell
; tile row31_8
G0 X245.00 F9000
G4 P250 ; settle
; trigger shutter here if needed
G4 P200 ; dwell
; tile row31_9
G0 X245.00 F9000
G4 P250 ; settle
; trigger shutter here if needed
G4 P200 ; dwell
; tile row31_10
G0 X245.00 F9000
G4 P250 ; settle
; trigger shutter here if needed
G4 P200 ; dwell
; tile row31_11
G0 X245.00 F9000
G4 P250 ; settle
; trigger shutter here if needed
G4 P200 ; dwell
; tile row31_12
G0 X245.00 F9000
G4 P250 ; settle
; trigger shutter here if needed
G4 P200 ; dwell
; tile row31_13
G0 X245.00 F9000
G4 P250 ; settle
; trigger shutter here if needed
G4 P200 ; dwell
; tile row31_14
G0 X245.00 F9000
G4 P250 ; settle
; trigger shutter here if needed
G4 P200 ; dwell
; tile row31_15
G0 X245.00 F9000
G4 P250 ; settle
; trigger shutter here if needed
G4 P200 ; dwell
; tile row31_16
G0 X245.00 F9000
G4 P250 ; settle
; trigger shutter here if needed
G4 P200 ; dwell
; tile row31_17
G0 X245.00 F9000
G4 P250 ; settle
; trigger shutter here if needed
G4 P200 ; dwell
; tile row31_18
G0 X245.00 F9000
G4 P250 ; settle
; trigger shutter here if needed
G4 P200 ; dwell
; tile row31_19
G0 X245.00 F9000
G4 P250 ; settle
; trigger shutter here if needed
G4 P200 ; dwell
; tile row31_20
G0 X245.00 F9000
G4 P250 ; settle
; trigger shutter here if needed
G4 P200 ; dwell
; tile row31_21
G0 X245.00 F9000
G4 P250 ; settle
; trigger shutter here if needed
G4 P200 ; dwell
; ---- Column 32 (target X≈253.00 mm) ----
M300 S880 P150 ; beep
M0 Move X to 253.00 mm, then press to continue
; tile row32_0
G0 X253.00 F9000
G4 P250 ; settle
; trigger shutter here if needed
G4 P200 ; dwell
; tile row32_1
G0 X253.00 F9000
G4 P250 ; settle
; trigger shutter here if needed
G4 P200 ; dwell
; tile row32_2
G0 X253.00 F9000
G4 P250 ; settle
; trigger shutter here if needed
G4 P200 ; dwell
; tile row32_3
G0 X253.00 F9000
G4 P250 ; settle
; trigger shutter here if needed
G4 P200 ; dwell
; tile row32_4
G0 X253.00 F9000
G4 P250 ; settle
; trigger shutter here if needed
G4 P200 ; dwell
; tile row32_5
G0 X253.00 F9000
G4 P250 ; settle
; trigger shutter here if needed
G4 P200 ; dwell
; tile row32_6
G0 X253.00 F9000
G4 P250 ; settle
; trigger shutter here if needed
G4 P200 ; dwell
; tile row32_7
G0 X253.00 F9000
G4 P250 ; settle
; trigger shutter here if needed
G4 P200 ; dwell
; tile row32_8
G0 X253.00 F9000
G4 P250 ; settle
; trigger shutter here if needed
G4 P200 ; dwell
; tile row32_9
G0 X253.00 F9000
G4 P250 ; settle
; trigger shutter here if needed
G4 P200 ; dwell
; tile row32_10
G0 X253.00 F9000
G4 P250 ; settle
; trigger shutter here if needed
G4 P200 ; dwell
; tile row32_11
G0 X253.00 F9000
G4 P250 ; settle
; trigger shutter here if needed
G4 P200 ; dwell
; tile row32_12
G0 X253.00 F9000
G4 P250 ; settle
; trigger shutter here if needed
G4 P200 ; dwell
; tile row32_13
G0 X253.00 F9000
G4 P250 ; settle
; trigger shutter here if needed
G4 P200 ; dwell
; tile row32_14
G0 X253.00 F9000
G4 P250 ; settle
; trigger shutter here if needed
G4 P200 ; dwell
; tile row32_15
G0 X253.00 F9000
G4 P250 ; settle
; trigger shutter here if needed
G4 P200 ; dwell
; tile row32_16
G0 X253.00 F9000
G4 P250 ; settle
; trigger shutter here if needed
G4 P200 ; dwell
; tile row32_17
G0 X253.00 F9000
G4 P250 ; settle
; trigger shutter here if needed
G4 P200 ; dwell
; tile row32_18
G0 X253.00 F9000
G4 P250 ; settle
; trigger shutter here if needed
G4 P200 ; dwell
; tile row32_19
G0 X253.00 F9000
G4 P250 ; settle
; trigger shutter here if needed
G4 P200 ; dwell
; tile row32_20
G0 X253.00 F9000
G4 P250 ; settle
; trigger shutter here if needed
G4 P200 ; dwell
; ---- Column 33 (target X≈261.00 mm) ----
M300 S880 P150 ; beep
M0 Move X to 261.00 mm, then press to continue
; tile row33_0
G0 X261.00 F9000
G4 P250 ; settle
; trigger shutter here if needed
G4 P200 ; dwell
; tile row33_1
G0 X261.00 F9000
G4 P250 ; settle
; trigger shutter here if needed
G4 P200 ; dwell
; tile row33_2
G0 X261.00 F9000
G4 P250 ; settle
; trigger shutter here if needed
G4 P200 ; dwell
; tile row33_3
G0 X261.00 F9000
G4 P250 ; settle
; trigger shutter here if needed
G4 P200 ; dwell
; tile row33_4
G0 X261.00 F9000
G4 P250 ; settle
; trigger shutter here if needed
G4 P200 ; dwell
; tile row33_5
G0 X261.00 F9000
G4 P250 ; settle
; trigger shutter here if needed
G4 P200 ; dwell
; tile row33_6
G0 X261.00 F9000
G4 P250 ; settle
; trigger shutter here if needed
G4 P200 ; dwell
; tile row33_7
G0 X261.00 F9000
G4 P250 ; settle
; trigger shutter here if needed
G4 P200 ; dwell
; tile row33_8
G0 X261.00 F9000
G4 P250 ; settle
; trigger shutter here if needed
G4 P200 ; dwell
; tile row33_9
G0 X261.00 F9000
G4 P250 ; settle
; trigger shutter here if needed
G4 P200 ; dwell
; tile row33_10
G0 X261.00 F9000
G4 P250 ; settle
; trigger shutter here if needed
G4 P200 ; dwell
; tile row33_11
G0 X261.00 F9000
G4 P250 ; settle
; trigger shutter here if needed
G4 P200 ; dwell
; tile row33_12
G0 X261.00 F9000
G4 P250 ; settle
; trigger shutter here if needed
G4 P200 ; dwell
; tile row33_13
G0 X261.00 F9000
G4 P250 ; settle
; trigger shutter here if needed
G4 P200 ; dwell
; tile row33_14
G0 X261.00 F9000
G4 P250 ; settle
; trigger shutter here if needed
G4 P200 ; dwell
; tile row33_15
G0 X261.00 F9000
G4 P250 ; settle
; trigger shutter here if needed
G4 P200 ; dwell
; tile row33_16
G0 X261.00 F9000
G4 P250 ; settle
; trigger shutter here if needed
G4 P200 ; dwell
; tile row33_17
G0 X261.00 F9000
G4 P250 ; settle
; trigger shutter here if needed
G4 P200 ; dwell
; tile row33_18
G0 X261.00 F9000
G4 P250 ; settle
; trigger shutter here if needed
G4 P200 ; dwell
; tile row33_19
G0 X261.00 F9000
G4 P250 ; settle
; trigger shutter here if needed
G4 P200 ; dwell
; tile row33_20
G0 X261.00 F9000
G4 P250 ; settle
; trigger shutter here if needed
G4 P200 ; dwell
; ---- Column 34 (target X≈269.00 mm) ----
M300 S880 P150 ; beep
M0 Move X to 269.00 mm, then press to continue
; tile row34_0
G0 X269.00 F9000
G4 P250 ; settle
; trigger shutter here if needed
G4 P200 ; dwell
; tile row34_1
G0 X269.00 F9000
G4 P250 ; settle
; trigger shutter here if needed
G4 P200 ; dwell
; tile row34_2
G0 X269.00 F9000
G4 P250 ; settle
; trigger shutter here if needed
G4 P200 ; dwell
; tile row34_3
G0 X269.00 F9000
G4 P250 ; settle
; trigger shutter here if needed
G4 P200 ; dwell
; tile row34_4
G0 X269.00 F9000
G4 P250 ; settle
; trigger shutter here if needed
G4 P200 ; dwell
; tile row34_5
G0 X269.00 F9000
G4 P250 ; settle
; trigger shutter here if needed
G4 P200 ; dwell
; tile row34_6
G0 X269.00 F9000
G4 P250 ; settle
; trigger shutter here if needed
G4 P200 ; dwell
; tile row34_7
G0 X269.00 F9000
G4 P250 ; settle
; trigger shutter here if needed
G4 P200 ; dwell
; tile row34_8
G0 X269.00 F9000
G4 P250 ; settle
; trigger shutter here if needed
G4 P200 ; dwell
; tile row34_9
G0 X269.00 F9000
G4 P250 ; settle
; trigger shutter here if needed
G4 P200 ; dwell
; tile row34_10
G0 X269.00 F9000
G4 P250 ; settle
; trigger shutter here if needed
G4 P200 ; dwell
; tile row34_11
G0 X269.00 F9000
G4 P250 ; settle
; trigger shutter here if needed
G4 P200 ; dwell
; tile row34_12
G0 X269.00 F9000
G4 P250 ; settle
; trigger shutter here if needed
G4 P200 ; dwell
; tile row34_13
G0 X269.00 F9000
G4 P250 ; settle
; trigger shutter here if needed
G4 P200 ; dwell
; tile row34_14
G0 X269.00 F9000
G4 P250 ; settle
; trigger shutter here if needed
G4 P200 ; dwell
; tile row34_15
G0 X269.00 F9000
G4 P250 ; settle
; trigger shutter here if needed
G4 P200 ; dwell
; tile row34_16
G0 X269.00 F9000
G4 P250 ; settle
; trigger shutter here if needed
G4 P200 ; dwell
; tile row34_17
G0 X269.00 F9000
G4 P250 ; settle
; trigger shutter here if needed
G4 P200 ; dwell
; tile row34_18
G0 X269.00 F9000
G4 P250 ; settle
; trigger shutter here if needed
G4 P200 ; dwell
G0 Z40.00 F1200
M300 S440 P200 ; beep